X: 12
T: No_110_Weeping_for_My_Love.krn
%%abc-version 2.0
%%abcx-abcm2ps-target-version 5.9.1 (29 Sep 2008)
%%abc-creator hum2abc beta
%%abcx-conversion-date 2020/08/10 18:54:56
%%humdrum-veritas 1213767705
%%humdrum-veritas-data 2403779085
%%linebreak <none>
%%barnumbers 0
L: 1/4
M: 2/4
K: Gb clef=treble
B [I:setbarnb 1]| 
e-e//>f//e/ | 
B/>B/e | 
B2- | 
Be | 
B-B//>c//B/ | 
A/>G/B | 
A2- | 
Ae | 
A-A//>B//A/ | 
G/>E/G ||  
[M:3/4]E3 ||  
[M:2/4]ed | 
e3/B/ | 
eB | 
A2- | 
A3/B//B// ||  
[M:3/4]e>>fe | 
dce | 
A>E {/G}G ||  
[M:2/4]E2- | 
EE | 
AA/B//A// | 
G/>E/G | 
E2- | 
Ez |]  


